X:260
T:La Cucaracha
T:The Cockroach
Z:Jack Campin, http://www.campin.me.uk/
F:Jack Campin's Nine-Note Tunebook
% last edit 03-02-2013
G:Mexican satirical song, late 19th century
M:4/4
L:1/8
Q:1/4=144
K:F
  z4  |zC2C FFAA|c3A- A2z2|zc2d cBAc|B2G2
  z4  |zC2C EEGG|B3G- G2z2|zc2d cBAG|F4 ||
|:zCCC|F3 A zCCC|F3A  z4  |zFFF EEDD|C4
  zCCC|E3 G zCCC|E3G  z4  |zc2d cBAG|F4 :|

